packages/gatsby-theme-docs/src/icons/svg/logo.svg

<?xml version="1.0" encoding="UTF-8"?>
<svg width="34px" height="34px" viewBox="0 0 34 34" version="1.1" xmlns="http://www.w3.org/2000/svg" xmlns:xlink="http://www.w3.org/1999/xlink">
    <!-- Generator: Sketch 59.1 (86144) - https://sketch.com -->
    <title>close-bold</title>
    <desc>Created with Sketch.</desc>
    <g id="App-KIT-FInal" stroke="none" stroke-width="1" fill="none" fill-rule="evenodd">
        <g id="Artboard" transform="translate(-56.000000, -24.000000)" fill="#2A4148" fill-rule="nonzero">
            <g id="Component-/-icon-/-24px-/-close-/-bold" transform="translate(56.000000, 24.000000)">
                <path d="M30.3765258,24.9917848 L17.715493,19.0894374 C17.6140845,19.042489 17.5051643,19.0068083 17.3962441,18.9786393 L17.3962441,18.927935 L17.3962441,15.3974186 C17.3962441,15.0481228 17.4093897,15.042489 17.6347418,14.9373247 L17.6347418,14.9373247 L18.1380282,14.7044609 C18.9868545,14.3100947 18.9868545,14.3100947 23.9784038,11.9739444 L30.3784038,8.97676134 C30.7483568,8.80399139 30.9868545,8.4265266 30.9868545,8.01901486 C30.9868545,7.60962519 30.7464789,7.23403833 30.3765258,7.06126838 L17.713615,1.1607989 C17.2553991,0.946714391 16.7295775,0.946714391 16.2694836,1.15892096 L3.61220657,7.04436697 C3.24413146,7.21525899 3.00375587,7.58896791 3,7.99647965 L3,7.99647965 L3,25.9307519 L3,25.9307519 C3,26.3401416 3.23849765,26.7157285 3.6084507,26.8884984 L16.284507,32.8227707 C16.3840376,32.8697191 16.485446,32.9035219 16.5906103,32.929813 L16.5906103,32.9748834 L16.9849765,32.9823951 C16.9962441,32.9823951 17.0056338,32.9823951 17.0169014,32.9823951 C17.0169014,32.9823951 17.0169014,32.9823951 17.0187793,32.9823951 L17.3962441,32.986151 L17.3962441,32.9392027 C17.5126761,32.9129116 17.629108,32.873475 17.7380282,32.8227707 L30.3784038,26.9053998 C30.7483568,26.7326299 30.9868545,26.3551651 30.9868545,25.9476534 C30.9868545,25.5401416 30.7464789,25.1645548 30.3765258,24.9917848 Z M3.8056338,24.8828646 L3.8056338,9.05187871 L16.286385,14.8941322 C16.3896714,14.9429585 16.4967136,14.9805172 16.6075117,15.0068083 C16.6112676,15.0068083 16.6150235,15.0105642 16.6187793,15.0105642 C16.5981221,15.1269961 16.5924883,15.2565735 16.5924883,15.3974186 L16.5924883,18.929813 L16.5924883,18.9767613 C16.5849765,18.9786393 16.5774648,18.9823951 16.5680751,18.9842731 C16.4666667,19.0105642 16.3671362,19.042489 16.2713615,19.0875595 L3.8056338,24.8828646 Z M3.95023474,7.7748834 L16.6093897,1.89131533 C16.7314554,1.8349773 16.8610329,1.80680829 16.9906103,1.80680829 C17.1220657,1.80680829 17.2516432,1.8349773 17.3737089,1.89131533 L30.0347418,7.79366275 C30.1230047,7.8349773 30.1793427,7.92511815 30.1793427,8.02277073 C30.1793427,8.12042331 30.1230047,8.20868622 30.0347418,8.25000078 L23.6366197,11.2453059 C18.6450704,13.5814562 18.6450704,13.5814562 17.7981221,13.9758224 L17.3211268,14.1974186 C17.285446,14.2105642 17.2497653,14.2180759 17.2140845,14.2274656 C17.1971831,14.2312214 17.1821596,14.2368552 17.1652582,14.2406111 C17.1126761,14.2500008 17.056338,14.2537566 16.9981221,14.2518787 C16.8685446,14.2500008 16.7446009,14.2218318 16.6262911,14.1673717 L3.95023474,8.2293435 C3.92769953,8.21995383 3.90892019,8.20680829 3.89201878,8.19178481 C3.83943662,8.14483646 3.80751174,8.07723082 3.8056338,8.00211345 C3.8056338,7.90446087 3.86384977,7.81432002 3.95023474,7.7748834 Z M3.95023474,26.1598599 C3.86197183,26.1185454 3.8056338,26.0284045 3.8056338,25.9307519 C3.8056338,25.9063388 3.80938967,25.8819257 3.81502347,25.8593904 C3.83568075,25.7917848 3.88450704,25.7335689 3.95023474,25.7035219 L16.5887324,19.8293435 L16.5887324,32.0772308 L3.95023474,26.1598599 Z M30.0366197,26.1767613 L17.3962441,32.0941322 C17.3962441,32.0941322 17.3962441,32.0941322 17.3943662,32.0941322 L17.3943662,19.8293435 L30.0347418,25.7204233 C30.1230047,25.7617379 30.1793883,25.8518787 30.1793883,25.9495313 C30.1812207,26.0471839 30.1248826,26.1354468 30.0366197,26.1767613 Z" id="XMLID_165_"></path>
            </g>
        </g>
    </g>
</svg>

<svg viewBox="0 0 34 34" width="34px" height="34px" xmlns="http://www.w3.org/2000/svg">
  <path d="M30.377 24.992l-12.662-5.903a1.888 1.888 0 00-.319-.11v-3.581c0-.35.013-.356.239-.46l.503-.234c.849-.394.849-.394 5.84-2.73l6.4-2.997c.37-.173.609-.55.609-.958 0-.41-.24-.785-.61-.958l-12.663-5.9a1.71 1.71 0 00-1.445-.002L3.612 7.044c-.368.171-.608.545-.612.952v17.935c0 .41.238.785.608.957l12.677 5.935c.099.047.2.08.306.107v.045l.394.007h.034l.377.004v-.047c.117-.026.233-.066.342-.116l12.64-5.918c.37-.172.609-.55.609-.957 0-.408-.24-.783-.61-.956zm-26.571-.11V9.053l12.48 5.842c.104.049.21.087.322.113.003 0 .007.004.01.004a2.25 2.25 0 00-.026.386v3.58l-.024.007c-.101.027-.2.058-.297.104L3.806 24.883zM3.95 7.776L16.61 1.89a.908.908 0 01.764 0l12.66 5.903a.253.253 0 010 .456l-6.397 2.995c-4.992 2.336-4.992 2.336-5.839 2.73l-.477.222c-.036.014-.071.021-.107.03l-.049.014a.911.911 0 01-.539-.073L3.95 8.228a.207.207 0 01-.058-.037.252.252 0 01.058-.417zm0 18.385a.253.253 0 010-.456l12.639-5.875v12.248L3.95 26.16zm26.087.017l-12.64 5.917h-.003V19.83l12.64 5.891a.253.253 0 01.003.457z" fill="#2A4148" fill-rule="nonzero"/>
</svg>
